!!!COM: Palestrina, Giovanni Perluigi da
!!!OPR: Ave Maria (1596)
!!!OTL: Credo
**kern	**kern	**kern	**kern	**kern	**kern
*Ibass	*Itenor	*Itenor	*Icalto	*Icalto	*Icant
!Bassus	!Tenor 2	!Tenor 1	!Altus 2	!Altus 1	!Cantus
*clefF4	*clefGv2	*clefGv2	*clefG2	*clefG2	*clefG2
*k[b-]	*k[b-]	*k[b-]	*k[b-]	*k[b-]	*k[b-]
*F:ion	*F:ion	*F:ion	*F:ion	*F:ion	*F:ion
*M4/2	*M4/2	*M4/2	*M4/2	*M4/2	*M4/2
=1	=1	=1	=1	=1	=1
0r	0r	0r	0r	0f	0r
=2	=2	=2	=2	=2	=2
0r	0r	0r	0r	1e	0r
.	.	.	.	1f	.
=3	=3	=3	=3	=3	=3
0r	0r	0B-	0r	2f	0r
.	.	.	.	2f	.
.	.	.	.	1d	.
=4	=4	=4	=4	=4	=4
0r	0r	1A	1r	2c	0r
.	.	.	.	2.f	.
.	.	1B-	[1f	.	.
.	.	.	.	4e-	.
.	.	.	.	4d	.
.	.	.	.	4c	.
=5	=5	=5	=5	=5	=5
0r	0r	2B-	1f]	1d	0b-
.	.	2B-	.	.	.
.	.	1G	1e	1B-	.
=6	=6	=6	=6	=6	=6
0r	0r	1F	1f	1c	1a
.	.	2.B-	2f	1d	1b-
.	.	.	2f	.	.
.	.	4c	.	.	.
=7	=7	=7	=7	=7	=7
0r	0r	4d	1d	1B-	2b-
.	.	4e	.	.	.
.	.	1f	.	.	2b-
.	.	.	1c	2r	1g
.	.	2e	.	[2c	.
=8	=8	=8	=8	=8	=8
0F	0r	1f	2r	2c]	2.a
.	.	.	2c	2A	.
.	.	.	.	.	4b-
.	.	[1c	4A	1a	[1cc
.	.	.	4B-	.	.
.	.	.	4c	.	.
.	.	.	4d	.	.
=9	=9	=9	=9	=9	=9
1E	0r	2c]	4e	1g	0cc]
.	.	.	4f	.	.
.	.	2B-	2g	.	.
1F	.	2A	1c	[1a	.
.	.	4F	.	.	.
.	.	4G	.	.	.
=10	=10	=10	=10	=10	=10
2F	0r	4A	2c	1a]	1r
.	.	4B-	.	.	.
2F	.	1c	2c	.	.
1D	.	.	1d	1f	2r
.	.	2B	.	.	2dd
=11	=11	=11	=11	=11	=11
0C	0r	0c	1g	0e	2ee
.	.	.	.	.	2cc
.	.	.	2r	.	1gg
.	.	.	2g	.	.
=12	=12	=12	=12	=12	=12
0r	0r	1r	2a	0r	2ee
.	.	.	2f	.	1ff
.	.	2r	1cc	.	.
.	.	2c	.	.	2ee
=13	=13	=13	=13	=13	=13
2r	0r	2d	2a	0r	1dd
2G	.	2B-	2.b-	.	.
2A	.	[1f	.	.	[1cc
.	.	.	4a	.	.
2F	.	.	[2a	.	.
=14	=14	=14	=14	=14	=14
1c	0r	2f]	4a]	2r	1cc]
.	.	.	4g	.	.
.	.	2e	2.g	2g	.
2A	.	2c	.	2a	1r
.	.	.	4f	.	.
2B-	.	[2d	[2f	2f	.
=15	=15	=15	=15	=15	=15
1G	0r	2d]	2f]	1b-	1r
.	.	4c	2e	.	.
.	.	4B-	.	.	.
1F	.	2c	1f	2a	2r
.	.	2d	.	2f	[2ff
=16	=16	=16	=16	=16	=16
2r	0r	1c	1r	1g	2ff]
1c	.	.	.	.	2ee
.	.	1G	1d	1g	2dd
2B-	.	.	.	.	2dd
=17	=17	=17	=17	=17	=17
2A	0r	0r	1e	2r	1cc
2A	.	.	.	1cc	.
1G	.	.	2g	.	2dd
.	.	.	2g	2b-	2ee
=18	=18	=18	=18	=18	=18
2F	0r	2r	1c	2a	1ff
2F	.	1c	.	2a	.
1G	.	.	2e	1g	2r
.	.	2B-	2d	.	[2dd
=19	=19	=19	=19	=19	=19
0r	0r	2.A	1a	2f	2dd]
.	.	.	.	2e	1cc
.	.	4G	.	.	.
.	.	2F	2r	1d	.
.	.	2G	2g	.	2b-
=20	=20	=20	=20	=20	=20
0r	0r	2A	2f	2.c	2a
.	.	2c	2e	.	4g
.	.	.	.	4c	4a
.	.	2.B-	2d	4f	4b-
.	.	.	.	4e	4cc
.	.	.	[2f	4d	[2dd
.	.	4A	.	4c	.
=21	=21	=21	=21	=21	=21
0r	0r	1G	2f]	2B-	2dd]
.	.	.	2e	2B-	4cc
.	.	.	.	.	4b-
.	.	1F	[1f	2c	4a
.	.	.	.	.	2b-
.	.	.	.	2c	.
.	.	.	.	.	4a
=22	=22	=22	=22	=22	=22
1.BB-	[0B-	1.f	1f]	0d	1b-
.	.	.	2r	.	[1dd
2BB-	.	2f	[2f	.	.
=23	=23	=23	=23	=23	=23
1BB-	0B-]	1d	2f]	2r	2dd]
.	.	.	2d	1f	2dd
1BB-	.	1B-	2.f	.	2dd
.	.	.	.	2d	2dd
.	.	.	4g	.	.
=24	=24	=24	=24	=24	=24
1.F	[0A	1.c	2a	2.f	1.cc
.	.	.	2a	.	.
.	.	.	.	4g	.
.	.	.	1f	2a	.
2F	.	2c	.	2a	2cc
=25	=25	=25	=25	=25	=25
1F	0A]	2c	0a	2f	1cc
.	.	2.f	.	2c	.
[1D	.	.	.	2d	[1ff
.	.	4e	.	.	.
.	.	4d	.	[2f	.
.	.	4c	.	.	.
=26	=26	=26	=26	=26	=26
1D]	[0A	1d	0a	4f]	1ff]
.	.	.	.	4e	.
.	.	.	.	1d	.
1A	.	1e	.	.	1ee
.	.	.	.	2c#	.
=27	=27	=27	=27	=27	=27
0D	0A]	2.f	2.a	4d	0dd
.	.	.	.	4e	.
.	.	.	.	4f	.
.	.	4e	4g	4g	.
.	.	1d	1f	1a	.
=28	=28	=28	=28	=28	=28
[0AA	[0A	2c#	2.e	0a	1ee
.	.	2e	.	.	.
.	.	.	4d	.	.
.	.	2e	[1c	.	2r
.	.	2e	.	.	2a
=29	=29	=29	=29	=29	=29
0AA]	0A]	2f	1c]	2r	2a
.	.	4e	.	2a	2a
.	.	4d	.	.	.
.	.	1e	1r	2a	1cc
.	.	.	.	2a	.
=30	=30	=30	=30	=30	=30
0r	0B-	1d	2r	2.f	2dd
.	.	.	2d	.	2.ff
.	.	.	.	8g	.
.	.	.	.	8a	.
.	.	2r	2d	1b-	.
.	.	.	.	.	4ee
.	.	[2f	2d	.	2dd
=31	=31	=31	=31	=31	=31
0r	[0F	4f]	2.f	2a	2cc
.	.	4e	.	.	.
.	.	2d	.	2a	2.ff
.	.	.	4g	.	.
.	.	2c	2a	2.f	.
.	.	.	.	.	4ee
.	.	[2f	2a	.	2dd
.	.	.	.	4g	.
=32	=32	=32	=32	=32	=32
0r	1F_	4f]	2.f	2a	2cc
.	.	4e	.	.	.
.	.	4d	.	1f	2.b-
.	.	8c	4f	.	.
.	.	8B-	.	.	.
.	1F_	2c	2f	.	.
.	.	.	.	.	8a
.	.	.	.	.	8g
.	.	2c	2f	2c	2a
=33	=33	=33	=33	=33	=33
1BB-	0F]	2B-	1f	1d	1b-
.	.	1B-	.	.	.
2BB-	.	.	1d	1f	1r
[2D	.	2A	.	.	.
=34	=34	=34	=34	=34	=34
2D]	[0A	1d	1r	2f	2r
2D	.	.	.	2a	1f
2.F	.	1c	2r	2a	.
.	.	.	[2c	[2cc	2f
4E	.	.	.	.	.
=35	=35	=35	=35	=35	=35
4F	0A]	0r	2c]	4cc]	2a
4G	.	.	.	4b-	.
2.A	.	.	2c	4a	2a
.	.	.	.	4g	.
.	.	.	2e	1a	1cc
4B-	.	.	.	.	.
[2c	.	.	2e	.	.
=36	=36	=36	=36	=36	=36
2c]	0G	0r	1g	1d	2dd
4B-	.	.	.	.	1g
4A	.	.	.	.	.
2.B-	.	.	2.d	2r	.
.	.	.	.	[2g	2g
4A	.	.	4c	.	.
=37	=37	=37	=37	=37	=37
2G	0G	1r	4d	2g]	2b-
.	.	.	4B-	.	.
2C	.	.	2e-	2g	2cc
1G	.	2r	1d	2.b-	1dd
.	.	[2G	.	.	.
.	.	.	.	4a	.
=38	=38	=38	=38	=38	=38
0r	[0B-	2G]	2r	1g	2.b-
.	.	2G	1d	.	.
.	.	.	.	.	4cc
.	.	2.B-	.	2.f	4dd
.	.	.	.	.	4ee
.	.	.	2d	.	[2ff
.	.	4c	.	4e	.
=39	=39	=39	=39	=39	=39
0r	0B-]	2d	2.f	4d	4ff]
.	.	.	.	4c	4ee
.	.	1f	.	2B-	4dd
.	.	.	4e	.	4cc
.	.	.	2d	2b-	2dd
.	.	4e	[2g	2b-	2dd
.	.	4d	.	.	.
=40	=40	=40	=40	=40	=40
0r	[0c	4e	4g]	1g	[0cc
.	.	4f	4f	.	.
.	.	1g	4e	.	.
.	.	.	4d	.	.
.	.	.	2e	1r	.
.	.	[2f	2a	.	.
=41	=41	=41	=41	=41	=41
1r	1c_	2f]	0g	1r	0cc]
.	.	4e	.	.	.
.	.	4d	.	.	.
1C	1c_	2e	.	2r	.
.	.	2e	.	2g	.
=42	=42	=42	=42	=42	=42
2F	0c]	1f	2r	2a	1r
2F	.	.	2f	2a	.
1A	.	2r	2e	1cc	2r
.	.	2F	2c	.	2cc
=43	=43	=43	=43	=43	=43
1G	0r	2B-	1g	1b-	2dd
.	.	2B-	.	.	2dd
2r	.	1d	1f	2a	[1ff
2D	.	.	.	2a	.
=44	=44	=44	=44	=44	=44
2F	0r	1c	2r	2a	1ff]
2F	.	.	2a	2a	.
2A	.	2r	2a	1cc	2ee
2A	.	2A	2e	.	2cc
=45	=45	=45	=45	=45	=45
1G	0r	2B-	2g	1b-	2dd
.	.	2B-	2g	.	2dd
2r	.	2d	1f	1a	[1ff
2D	.	2d	.	.	.
=46	=46	=46	=46	=46	=46
1F	0r	1c	2r	1a	2ff]
.	.	.	1a	.	2ff
1A	.	2r	.	1cc	2ee
.	.	2A	2e	.	2cc
=47	=47	=47	=47	=47	=47
1G	0r	1B-	1g	1b-	1dd
1r	.	1d	4f	1a	1ff
.	.	.	4g	.	.
.	.	.	4a	.	.
.	.	.	4b-	.	.
=48	=48	=48	=48	=48	=48
1C	0r	0c	1cc	2r	2.ee
.	.	.	.	2g	.
.	.	.	.	.	4dd
1F	.	.	2r	1a	1cc
.	.	.	2f	.	.
=49	=49	=49	=49	=49	=49
1A	0r	2r	2e	1cc	2r
.	.	2F	2c	.	2cc
1G	.	1B-	1g	1b-	1dd
=50	=50	=50	=50	=50	=50
4D	0r	1d	4f	1.a	1ff
4E	.	.	4g	.	.
4F	.	.	4a	.	.
4G	.	.	4b-	.	.
4A	.	1c	2cc	.	1ee
4B-	.	.	.	.	.
[2c	.	.	2c	4g	.
.	.	.	.	4f	.
=51	=51	=51	=51	=51	=51
2c]	0r	0G	2d	2.g	0dd
4B	.	.	2d	.	.
4A	.	.	.	8f	.
.	.	.	.	8e	.
1B	.	.	1g	4d	.
.	.	.	.	4c	.
.	.	.	.	2d	.
=52	=52	=52	=52	=52	=52
0c	0r	2r	1g	1.e	[0cc
.	.	1g	.	.	.
.	.	.	2r	.	.
.	.	2g	[2g	2c	.
=53	=53	=53	=53	=53	=53
2r	0r	2e	2g]	1c	1cc]
1c	.	2c	2g	.	.
.	.	4g	1e	1r	2r
.	.	4f	.	.	.
2c	.	4e	.	.	[2cc
.	.	4d	.	.	.
=54	=54	=54	=54	=54	=54
2A	0r	2e	1c	0r	2cc]
1F	.	2.f	.	.	2cc
.	.	.	2.f	.	2a
.	.	4e	.	.	.
[2B-	.	4d	.	.	2f
.	.	4c	8e	.	.
.	.	.	8f	.	.
=55	=55	=55	=55	=55	=55
4B-]	0r	1d	4g	0r	0b-
4A	.	.	4f	.	.
4G	.	.	1f	.	.
4F	.	.	.	.	.
1G	.	1B-	.	.	.
.	.	.	2e	.	.
=56	=56	=56	=56	=56	=56
[0F	0r	0c	1f	2r	[0a
.	.	.	.	1f	.
.	.	.	2r	.	.
.	.	.	[2f	2f	.
=57	=57	=57	=57	=57	=57
0F]	0r	0r	2f]	2d	1a]
.	.	.	2f	2c	.
.	.	.	2d	2.f	2r
.	.	.	2c	.	[2cc
.	.	.	.	4g	.
=58	=58	=58	=58	=58	=58
0r	0r	0r	2.f	1a	2cc]
.	.	.	.	.	2cc
.	.	.	4e	.	.
.	.	.	4f	2.d	2a
.	.	.	4g	.	.
.	.	.	[2a	.	2f
.	.	.	.	4e	.
=59	=59	=59	=59	=59	=59
0r	0r	0r	4a]	4f	1.cc
.	.	.	4g	4g	.
.	.	.	4f	1a	.
.	.	.	4e	.	.
.	.	.	2f	.	.
.	.	.	2B-	[2g	2b-
=60	=60	=60	=60	=60	=60
0r	0r	1r	1d	4g]	2a
.	.	.	.	4f	.
.	.	.	.	1f	4g
.	.	.	.	.	4f
.	.	2r	1c	.	1g
.	.	[2c	.	4e	.
.	.	.	.	4d	.
=61	=61	=61	=61	=61	=61
0r	0r	2c]	2r	0e	1g
.	.	2c	1cc	.	.
.	.	2A	.	.	2r
.	.	2A	2cc	.	[2cc
=62	=62	=62	=62	=62	=62
2r	0r	1F	2a	2.f	2cc]
1F	.	.	2a	.	2cc
.	.	.	.	8e	.
.	.	.	.	8d	.
.	.	2r	2f	1c	2a
2F	.	[2f	2g	.	2a
=63	=63	=63	=63	=63	=63
2D	0r	2f]	1a	2r	1f
2D	.	2f	.	1f	.
[1BB-	.	2d	2r	.	2.b-
.	.	2d	[2b-	2f	.
.	.	.	.	.	4cc
=64	=64	=64	=64	=64	=64
1BB-]	[0f	2B-	2b-]	2d	4dd
.	.	.	.	.	4ee
.	.	2.F	2b-	2d	1ff
1F	.	.	2.a	1c	.
.	.	4G	.	.	.
.	.	[2A	.	.	4ee
.	.	.	4a	.	4dd
=65	=65	=65	=65	=65	=65
1F	0f]	4A]	1a	1A	1cc
.	.	4B-	.	.	.
.	.	1c	.	.	.
1D	.	.	2f	1d	1dd
.	.	2B	2d	.	.
=66	=66	=66	=66	=66	=66
[0C	[0e	1c	2.g	1G	2ee
.	.	.	.	.	2cc
.	.	.	4f	.	.
.	.	2r	4g	1r	2cc
.	.	.	4f	.	.
.	.	2G	4e	.	2cc
.	.	.	4d	.	.
=67	=67	=67	=67	=67	=67
0C]	0e]	2G	1c	1g	1gg
.	.	2G	.	.	.
.	.	1c	1r	2g	[1ee
.	.	.	.	2g	.
=68	=68	=68	=68	=68	=68
0r	[0e	2A	1r	1cc	2ee]
.	.	2A	.	.	2ee
.	.	2.A	2r	2a	[1cc
.	.	.	2c	2a	.
.	.	4B-	.	.	.
=69	=69	=69	=69	=69	=69
1C	0e]	0c	2c	1g	0cc]
.	.	.	2c	.	.
2C	.	.	1g	2r	.
2C	.	.	.	2g	.
=70	=70	=70	=70	=70	=70
1c	[0e	0r	2e	2g	0r
.	.	.	2c	2g	.
1A	.	.	2c	1cc	.
.	.	.	2c	.	.
=71	=71	=71	=71	=71	=71
2A	0e]	0r	1cc	2c	0r
2A	.	.	.	2c	.
1G	.	.	2b-	1g	.
.	.	.	2b-	.	.
=72	=72	=72	=72	=72	=72
1F	0f	1r	1a	1c	2r
.	.	.	.	.	2cc
1r	.	2r	1d	1r	2a
.	.	2B-	.	.	2f
=73	=73	=73	=73	=73	=73
1r	[0c	2A	2e	2r	2.a
.	.	2F	2a	2f	.
.	.	.	.	.	4b-
2r	.	2.A	1a	2e	1cc
2F	.	.	.	2c	.
.	.	4B-	.	.	.
=74	=74	=74	=74	=74	=74
2E	1c_	2.c	2g	2e	0cc
2C	.	.	2e	1g	.
.	.	8B-	.	.	.
.	.	8A	.	.	.
2E	1c_	2G	2g	.	.
2F	.	2c	2a	[2f	.
=75	=75	=75	=75	=75	=75
1C	0c]	4c	1g	2f]	1cc
.	.	4d	.	.	.
.	.	4e	.	4e	.
.	.	4f	.	4d	.
1r	.	1g	1r	1e	1r
=76	=76	=76	=76	=76	=76
0C	[0e	1r	0c	0g	0cc
.	.	1c	.	.	.
=77	=77	=77	=77	=77	=77
1C	0e]	1c	1e	1.g	1cc
1C	.	1c	1g	.	1cc
.	.	.	.	2a	.
=78	=78	=78	=78	=78	=78
1G	0d	1B-	1.g	1b-	1dd
1G	.	1G	.	1b-	1dd
.	.	.	2g	.	.
=79	=79	=79	=79	=79	=79
2D	0d	2A	2f#	1a	0dd
2D	.	2A	2f#	.	.
1G	.	1B-	1g	1r	.
=80	=80	=80	=80	=80	=80
2F	[0f	2c	2a	0r	0r
2F	.	2c	2a	.	.
1BB-	.	1d	1b-	.	.
=81	=81	=81	=81	=81	=81
1F	0f]	2c	1a	2r	2r
.	.	1F	.	1a	1ff
1r	.	.	[1cc	.	.
.	.	2F	.	2a	2ff
=82	=82	=82	=82	=82	=82
0r	[0g	1c	2cc]	2g	1ee
.	.	.	2c	2.cc	.
.	.	1G	2d	.	1dd
.	.	.	.	8b-	.
.	.	.	.	8a	.
.	.	.	2d	2b	.
=83	=83	=83	=83	=83	=83
0r	0g]	1.c	4c	1.cc	1.ee
.	.	.	4d	.	.
.	.	.	4e	.	.
.	.	.	4f	.	.
.	.	.	2g	.	.
.	.	2c	2c	2cc	2ee
=84	=84	=84	=84	=84	=84
1r	[0g	0G	1d	1b	1dd
1C	.	.	1e	2r	1cc
.	.	.	.	2cc	.
=85	=85	=85	=85	=85	=85
1G	0g]	2r	1d	1b	1dd
.	.	2G	.	.	.
1C	.	2G	2c	2cc	1ee
.	.	2G	[2cc	2c	.
=86	=86	=86	=86	=86	=86
1G	[0g	1.G	2cc]	0d	1.dd
.	.	.	4b	.	.
.	.	.	4a	.	.
1G	.	.	2b	.	.
.	.	2G	2b	.	2dd
=87	=87	=87	=87	=87	=87
0C	0g]	0G	0cc	0c	0ee
*	*	*	*	*-	*-
!! Crucifixus
*Icalto	*Icalto	*Icant	*Icant
!Altus 2	!Altus 1	!Cantus 2	!Cantus 1
*clefG2	*clefG2	*clefG2	*clefG2
*k[b-]	*k[b-]	*k[b-]	*k[b-]
*F:ion	*F:ion	*F:ion	*F:ion
*M4/2	*M4/2	*M4/2	*M4/2
=88	=88	=88	=88
0r	0f	0r	0r
=89	=89	=89	=89
0r	1f	0r	0r
.	1b-	.	.
=90	=90	=90	=90
0r	2a	0cc	0r
.	1f	.	.
.	2e	.	.
=91	=91	=91	=91
0r	2f	1cc	0r
.	2c	.	.
.	1d	1ff	.
=92	=92	=92	=92
0r	2c	0ee	0cc
.	2.A	.	.
.	4B-	.	.
.	4c	.	.
.	4d	.	.
=93	=93	=93	=93
0r	2e	2r	1cc
.	2f	1cc	.
.	1d	.	1ff
.	.	2b	.
=94	=94	=94	=94
0r	1c	2cc	1ee
.	.	2g	.
.	2.f	1a	2r
.	.	.	[2cc
.	4e	.	.
=95	=95	=95	=95
2r	1d	1f	2cc]
1f	.	.	2b
.	1c	1g	2cc
2e	.	.	2g
=96	=96	=96	=96
2f	1r	1.cc	1.a
2c	.	.	.
1d	[1f	.	.
.	.	2b	4g
.	.	.	4f
=97	=97	=97	=97
[0c	2f]	2cc	1g
.	4e	2g	.
.	4d	.	.
.	2e	2.a	1cc
.	[2f	.	.
.	.	8g	.
.	.	8f	.
=98	=98	=98	=98
1c]	2f]	1g	2r
.	2e	.	2cc
2r	1f	1a	2cc
2f	.	.	2cc
=99	=99	=99	=99
2f	0r	2r	2a
2f	.	2ff	2a
4d	.	2ff	1dd
4e	.	.	.
4f	.	2ff	.
4g	.	.	.
=100	=100	=100	=100
4a	0r	2.ee	1cc
4b-	.	.	.
4cc	.	.	.
4a	.	4cc	.
2.b-	.	4dd	1r
.	.	4ee	.
.	.	2ff	.
4a	.	.	.
=101	=101	=101	=101
2g	0r	2ee	1r
2f	.	2.dd	.
2e	.	.	2r
.	.	4cc	.
4d	.	[2cc	2ff
4c	.	.	.
=102	=102	=102	=102
1d	2r	2cc]	2ff
.	2f	2b	2ff
1c	2g	1cc	2.ee
.	2a	.	.
.	.	.	4cc
=103	=103	=103	=103
0r	2.b-	2r	4dd
.	.	.	4ee
.	.	2b-	2ff
.	4a	.	.
.	2g	2b-	2ee
.	2f	2a	[2dd
=104	=104	=104	=104
1r	2e	2g	4dd]
.	.	.	4cc
.	4d	2a	1cc
.	4c	.	.
2r	1d	1f	.
[2f	.	.	2b
=105	=105	=105	=105
2f]	0c	0g	0cc
4e	.	.	.
4d	.	.	.
1e	.	.	.
=106	=106	=106	=106
1f	2r	0cc	1a
.	1f	.	.
[1c	.	.	[1g
.	4e	.	.
.	4d	.	.
=107	=107	=107	=107
1c]	1e	1cc	1g]
1d	2f	1a	1f
.	2d	.	.
=108	=108	=108	=108
1B-	2f	2dd	1b-
.	1g	1dd	.
1d	.	.	2a
.	[2f	2b-	4g
.	.	.	4f
=109	=109	=109	=109
0c	2f]	[0cc	1g
.	4e	.	.
.	4d	.	.
.	1e	.	1g
=110	=110	=110	=110
2r	0f	0cc]	1a
2f	.	.	.
2a	.	.	2r
2a	.	.	2cc
=111	=111	=111	=111
1b-	1r	0r	2dd
.	.	.	2dd
1a	2r	.	1ff
.	2f	.	.
=112	=112	=112	=112
1r	2a	2r	1ee
.	2a	2cc	.
2r	1b-	2dd	1r
2g	.	2dd	.
=113	=113	=113	=113
2f	0a	0ff	2r
2d	.	.	2dd
1f	.	.	2cc
.	.	.	2a
=114	=114	=114	=114
1c	2r	2.ee	1cc
.	2cc	.	.
.	.	8dd	.
.	.	8cc	.
1r	2b-	1dd	2g
.	2g	.	2gg
=115	=115	=115	=115
0r	1b-	2r	2ff
.	.	2dd	2dd
.	4a	2cc	1ff
.	4g	.	.
.	4f	2a	.
.	4g	.	.
=116	=116	=116	=116
1r	4a	1cc	2.ee
.	4b-	.	.
.	2.cc	.	.
.	.	.	8dd
.	.	.	8cc
2r	.	1g	[1dd
.	4b-	.	.
2g	4b-	.	.
.	8a	.	.
.	8g	.	.
=117	=117	=117	=117
2f	0a	2r	1dd]
2d	.	2dd	.
2.f	.	2cc	1r
.	.	2a	.
4g	.	.	.
=118	=118	=118	=118
2a	2r	2cc	1r
2b-	2g	2.dd	.
2.a	2f	.	2r
.	.	4cc	.
.	2d	[2ff	2dd
4g	.	.	.
=119	=119	=119	=119
4a	1f	2ff]	2cc
4b-	.	.	.
2.cc	.	4ee	2a
.	.	4dd	.
.	1c	1ee	2.cc
4b-	.	.	.
4a	.	.	.
4g	.	.	4b-
=120	=120	=120	=120
2f#	0d	[0dd	2a
1g	.	.	2g
.	.	.	1a
2f#	.	.	.
=121	=121	=121	=121
0g	0G	1dd]	2b-
.	.	.	2g
.	.	2r	2.b-
.	.	2g	.
.	.	.	4cc
=122	=122	=122	=122
0r	0r	2b-	2dd
.	.	2cc	2ee
.	.	2dd	2ff
.	.	2ee	2cc
=123	=123	=123	=123
0r	1r	2.ff	2.dd
.	.	4ee	4cc
.	2r	4dd	4b-
.	.	4cc	4a
.	2G	[2dd	[2b-
=124	=124	=124	=124
0r	2B-	2dd]	2b-]
.	2c	2cc	1a
.	2d	1b-	.
.	2e	.	2g
=125	=125	=125	=125
2r	1f	0a	1a
2d	.	.	.
2.f	1d	.	2r
.	.	.	2a
4g	.	.	.
=126	=126	=126	=126
2a	0r	0r	2cc
2b-	.	.	2dd
2cc	.	.	2ee
2a	.	.	2ff
=127	=127	=127	=127
1.b-	0r	2r	2.gg
.	.	2g	.
.	.	.	4ff
.	.	2b-	4dd
.	.	.	4ee
2a	.	2cc	[2ff
=128	=128	=128	=128
1g	1r	2dd	2ff]
.	.	2ee	2ee
1f	2r	[1ff	2.dd
.	2d	.	.
.	.	.	8cc
.	.	.	8b-
=129	=129	=129	=129
0r	2f	2ff]	2a
.	2g	4ee	2b-
.	.	4dd	.
.	2a	1ff	2cc
.	2b-	.	2dd
=130	=130	=130	=130
0r	2.cc	2.ee	2.a
.	4b-	4dd	4b-
.	2a	4ee	2cc
.	.	4ff	.
.	[2b-	[2gg	[2dd
=131	=131	=131	=131
1r	2b-]	4gg]	2dd]
.	.	4ff	.
.	2a	1ff	4cc
.	.	.	4b-
1c	1g	.	1cc
.	.	2ee	.
=132	=132	=132	=132
2.d	1f	1ff	2r
.	.	.	2f
4d	.	.	.
2e	1r	2r	2g
2f	.	2cc	2a
=133	=133	=133	=133
2B-	2r	2.dd	2b-
2d	2f	.	2a
.	.	4dd	.
1c	2.g	1ee	2.cc
.	4g	.	4b-
=134	=134	=134	=134
0r	2a	1.ff	2cc
.	2b-	.	2.dd
.	2f	.	.
.	.	.	4cc
.	2a	2cc	[2cc
=135	=135	=135	=135
2r	1g	1dd	4cc]
.	.	.	8b
.	.	.	8a
2g	.	.	2b
2g	1c	2ee	1cc
2a	.	2cc	.
=136	=136	=136	=136
2b-	0r	2dd	0r
2cc	.	2ee	.
2a	.	2.ff	.
[2b-	.	.	.
.	.	4ee	.
=137	=137	=137	=137
4b-]	0r	4dd	0r
4a	.	4cc	.
4g	.	2.dd	.
4f	.	.	.
2.g	.	.	.
.	.	4cc	.
.	.	4b-	.
4f	.	4a	.
=138	=138	=138	=138
2e	0r	2g	2r
2.f	.	2.a	2cc
.	.	.	2dd
4e	.	4b-	.
2c	.	[2cc	2ee
=139	=139	=139	=139
1d	2r	4cc]	2.ff
.	.	8b	.
.	.	8a	.
.	2f	2b	.
.	.	.	8ee
.	.	.	8dd
1c	2g	2cc	1ee
.	2a	2cc	.
=140	=140	=140	=140
0r	2b-	2dd	2r
.	2cc	2ee	2a
.	2a	2.ff	2cc
.	[2b-	.	2dd
.	.	4ee	.
=141	=141	=141	=141
0r	4b-]	4dd	2.g
.	4a	4cc	.
.	4g	2.dd	.
.	4f	.	4a
.	2.g	.	4b-
.	.	4cc	4cc
.	.	4b-	[2dd
.	4f	4a	.
=142	=142	=142	=142
1r	2e	2g	4dd]
.	.	.	4cc
.	2f	2a	1cc
2r	1d	1f	.
[2f	.	.	2b
=143	=143	=143	=143
2f]	1c	1g	2cc
2e	.	.	2cc
2d	1r	1f	2b-
[2f	.	.	2a
=144	=144	=144	=144
4f]	2r	0r	2cc
4e	.	.	.
1d	1f	.	4b-
.	.	.	4a
.	.	.	4b-
.	.	.	4a
2c	2e	.	[2a
=145	=145	=145	=145
2B-	1d	2r	2a]
2B-	.	1dd	2g
1A	2.e	.	1a
.	.	2cc	.
.	4f	.	.
=146	=146	=146	=146
0r	1g	2b-	2.dd
.	.	2.dd	.
.	.	.	4cc
.	1g	.	4b-
.	.	4cc	4a
.	.	[2b-	[2g
=147	=147	=147	=147
0r	1d	2b-]	2g]
.	.	2a	2f
.	1r	2g	2b-
.	.	2g	2b-
=148	=148	=148	=148
0d	1r	1f#	1a
.	1f#	1a	1dd
=149	=149	=149	=149
1g	2g	1b-	1dd
.	2.b-	.	.
1f	.	1cc	[1ff
.	8a	.	.
.	8g	.	.
.	2a	.	.
=150	=150	=150	=150
1B-	0b-	2dd	1ff]
.	.	1ff	.
2r	.	.	1dd
2b-	.	2dd	.
=151	=151	=151	=151
2g	0r	2ee	0r
2a	.	2.ff	.
2.b-	.	.	.
.	.	4ee	.
.	.	4dd	.
4a	.	4cc	.
=152	=152	=152	=152
2g	1r	2b-	0r
4f	.	2cc	.
4e	.	.	.
4d	2r	[1dd	.
4c	.	.	.
4d	2f	.	.
4e	.	.	.
=153	=153	=153	=153
4f	2d	2dd]	0r
4d	.	.	.
2.g	2e	4cc	.
.	.	4b-	.
.	1f	1a	.
4f	.	.	.
[2f	.	.	.
=154	=154	=154	=154
2f]	1c	1g	2r
2e	.	.	1cc
1f	2r	1a	.
.	2f	.	2a
=155	=155	=155	=155
0r	2d	0r	2b-
.	2e	.	2.cc
.	2.f	.	.
.	.	.	4b-
.	.	.	4a
.	4e	.	4g
=156	=156	=156	=156
1r	4d	1ff	2a
.	4c	.	.
.	1B-	.	1dd
2r	.	2dd	.
[2a	2A	2ee	[2cc
=157	=157	=157	=157
2a]	1d	1.ff	2cc]
2f	.	.	2b
2g	1c	.	1cc
[2a	.	2ee	.
=158	=158	=158	=158
4a]	2.d	0dd	2.f
4g	.	.	.
4f	.	.	.
4e	4e	.	4g
4d	2f	.	2a
4c	.	.	.
2B-	2g	.	2b-
=159	=159	=159	=159
0c	2e	0cc	2g
.	1f	.	2a
.	.	.	1g
.	2e	.	.
=160	=160	=160	=160
2r	1f	1cc	1a
1cc	.	.	.
.	2r	2.a	1f
2a	2f	.	.
.	.	4g	.
=161	=161	=161	=161
2b-	2d	2f	0r
2.cc	2e	2g	.
.	2.f	1a	.
4b-	.	.	.
4a	.	.	.
4g	4e	.	.
=162	=162	=162	=162
1f	4d	2a	1ff
.	4c	.	.
.	1B-	1dd	.
2.g	.	.	2dd
.	2c	[2cc	2ee
4a	.	.	.
=163	=163	=163	=163
0f	0d	2cc]	0ff
.	.	4b	.
.	.	4a	.
.	.	1b	.
=164	=164	=164	=164
0g	0c	0cc	0cc
*-	*-	*-	*-
!! Et in Spiritum
**kern	**kern	**kern	**kern	**kern	**kern
*Ibass	*Itenor	*Itenor	*Icalto	*Icalto	*Icant
!Bassus	!Tenor 2	!Tenor 1	!Altus 2	!Altus 1	!Cantus
*clefF4	*clefGv2	*clefGv2	*clefG2	*clefG2	*clefG2
*k[b-]	*k[b-]	*k[b-]	*k[b-]	*k[b-]	*k[b-]
*F:ion	*F:ion	*F:ion	*F:ion	*F:ion	*F:ion
*M4/2	*M4/2	*M4/2	*M4/2	*M4/2	*M4/2
=165	=165	=165	=165	=165	=165
0r	0r	1.c	0r	1.g	1r
.	.	.	.	.	[1cc
.	.	2c	.	2g	.
=166	=166	=166	=166	=166	=166
0r	0r	2f	0r	2a	2cc]
.	.	2f	.	2a	2cc
.	.	1d	.	1a	2ff
.	.	.	.	.	2ff
=167	=167	=167	=167	=167	=167
0r	0r	1g	0r	1b-	1dd
.	.	1c	.	2g	1ee
.	.	.	.	[2cc	.
=168	=168	=168	=168	=168	=168
0r	0r	2.f	0r	4cc]	2cc
.	.	.	.	4b-	.
.	.	.	.	4a	2.ff
.	.	4e	.	4g	.
.	.	4d	.	2f	.
.	.	4c	.	.	4ee
.	.	4B-	.	[2g	4dd
.	.	4A	.	.	4cc
=169	=169	=169	=169	=169	=169
0r	0r	2G	1r	2g]	4b-
.	.	.	.	.	4a
.	.	2d	.	1f	4a
.	.	.	.	.	8g
.	.	.	.	.	8f
.	.	1c	2r	.	2g
.	.	.	[2c	2e	2g
=170	=170	=170	=170	=170	=170
1.F	0r	0r	2c]	1f	0a
.	.	.	2c	.	.
.	.	.	1f	2r	.
2F	.	.	.	[2f	.
=171	=171	=171	=171	=171	=171
1B-	0r	0r	1d	2f]	1r
.	.	.	.	2f	.
1G	.	.	2.g	1b-	2r
.	.	.	.	.	[2g
.	.	.	4f	.	.
=172	=172	=172	=172	=172	=172
2.c	0r	0r	4e	2g	2g]
.	.	.	4d	.	.
.	.	.	1c	2.cc	2g
4B-	.	.	.	.	.
4A	.	.	.	.	[1a
4G	.	.	.	4b-	.
4F	.	.	[2d	4a	.
4E	.	.	.	4g	.
=173	=173	=173	=173	=173	=173
2D	0r	1r	2d]	4f	2a]
.	.	.	.	4e	.
2A	.	.	2.c	4d	2f
.	.	.	.	4c	.
1G	.	2r	.	1d	1g
.	.	.	8B	.	.
.	.	.	8A	.	.
.	.	[2G	2B	.	.
=174	=174	=174	=174	=174	=174
1C	0r	2G]	2c	1e-	2.g
.	.	2c	2g	.	.
.	.	.	.	.	4a
1G	.	1B-	2g	[1d	2.b-
.	.	.	[2b-	.	.
.	.	.	.	.	4cc
=175	=175	=175	=175	=175	=175
2G	1r	2.G	4b-]	0d]	0dd
.	.	.	4a	.	.
2.B-	.	.	4g	.	.
.	.	4A	4f	.	.
.	[1B-	4B-	2g	.	.
4A	.	4c	.	.	.
4G	.	[2d	[2f	.	.
4F	.	.	.	.	.
=176	=176	=176	=176	=176	=176
1G	1B-]	2d]	2f]	1r	0r
.	.	4c	2e	.	.
.	.	4B-	.	.	.
1F	[1A	[1A	1f	2r	.
.	.	.	.	2a	.
=177	=177	=177	=177	=177	=177
0r	1A_	1A]	2r	2a	1ee
.	.	.	1a	2.cc	.
.	1A_	1r	.	.	2ee
.	.	.	.	4b-	.
.	.	.	2a	4a	2ee
.	.	.	.	4g	.
=178	=178	=178	=178	=178	=178
0r	1A]	0r	2.cc	2a	2ff
.	.	.	.	2e	1ee
.	.	.	4b-	.	.
.	[1A	.	4a	1f	.
.	.	.	4g	.	.
.	.	.	2a	.	[2dd
=179	=179	=179	=179	=179	=179
0r	1A]	1r	2a	1e	4dd]
.	.	.	.	.	8cc#
.	.	.	.	.	8b
.	.	.	2a	.	2cc#
.	1B-	2r	2f	1d	[1dd
.	.	2d	2g	.	.
=180	=180	=180	=180	=180	=180
0D	[0F	2d	1a	2r	0dd]
.	.	2.f	.	2d	.
.	.	.	2r	2d	.
.	.	4e	.	.	.
.	.	4d	2a	[2f	.
.	.	4c	.	.	.
=181	=181	=181	=181	=181	=181
1D	1F]	1d	2a	4f]	2r
.	.	.	.	4g	.
.	.	.	2.f	2a	1a
[1F	[1A	[1c	.	4f	.
.	.	.	4e	4g	.
.	.	.	4f	4a	2a
.	.	.	4g	4b-	.
=182	=182	=182	=182	=182	=182
1F]	1A]	0c]	2a	1.cc	1ff
.	.	.	2f	.	.
1C	1G	.	1g	.	2ee
.	.	.	.	2g	2cc
=183	=183	=183	=183	=183	=183
2G	1G	0r	2g	2.b-	0dd
2.B-	.	.	2g	.	.
.	.	.	.	4a	.
.	[1B-	.	1d	2g	.
4A	.	.	.	.	.
4G	.	.	.	[2f	.
4F	.	.	.	.	.
=184	=184	=184	=184	=184	=184
2G	1B-]	1r	1r	2f]	1b-
2G	.	.	.	2e	.
1F	[1c	2r	2r	1f	1a
.	.	[2f	[2a	.	.
=185	=185	=185	=185	=185	=185
0r	0c]	2f]	2a]	0r	1.cc
.	.	2e	2g	.	.
.	.	2c	2e	.	.
.	.	2e	2g	.	2cc
=186	=186	=186	=186	=186	=186
0r	0r	1d	1f	2r	2b-
.	.	.	.	1f	2a
.	.	[1c	[1g	.	[1cc
.	.	.	.	2e	.
=187	=187	=187	=187	=187	=187
2r	0r	1c]	1g]	2c	1cc]
2c	.	.	.	2e	.
2c	.	1G	1g	1d	[1dd
2B-	.	.	.	.	.
=188	=188	=188	=188	=188	=188
2G	0r	2.B-	2g	1d	1dd]
2B-	.	.	2g	.	.
.	.	4B-	.	.	.
1A	.	2c	2f	1r	2r
.	.	2c	2e	.	2cc
=189	=189	=189	=189	=189	=189
0G	0r	2.d	0g	2r	2cc
.	.	.	.	2d	2b-
.	.	4c	.	.	.
.	.	4B-	.	2d	2g
.	.	4A	.	.	.
.	.	2G	.	2g	2b-
=190	=190	=190	=190	=190	=190
1r	0r	2A	1c	2e	1a
.	.	2F	.	1f	.
2r	.	1c	1r	.	[1g
[2c	.	.	.	4e	.
.	.	.	.	4d	.
=191	=191	=191	=191	=191	=191
2c]	0r	1r	0r	1e	1g]
2c	.	.	.	.	.
2B-	.	[1f	.	1d	1r
2B-	.	.	.	.	.
=192	=192	=192	=192	=192	=192
2A	0r	2f]	1.cc	1c	0r
4F	.	2f	.	.	.
4G	.	.	.	.	.
4A	.	2e	.	2r	.
4B-	.	.	.	.	.
2c	.	2e	2cc	[2g	.
=193	=193	=193	=193	=193	=193
1G	0r	2d	1b-	2g]	1r
.	.	4B-	.	2g	.
.	.	4c	.	.	.
1B-	.	4d	1b-	2f	[1ff
.	.	4e	.	.	.
.	.	[2f	.	2d	.
=194	=194	=194	=194	=194	=194
1F	0r	2f]	1a	2f	2ff]
.	.	2F	.	1cc	2ff
1r	.	1c	[1g	.	2ee
.	.	.	.	2cc	2ee
=195	=195	=195	=195	=195	=195
0r	0r	2.G	2g]	1.b-	2dd
.	.	.	2g	.	4b-
.	.	4A	.	.	4cc
.	.	4B-	1f	.	4dd
.	.	4c	.	.	4ee
.	.	[2d	.	2a	[2ff
=196	=196	=196	=196	=196	=196
0r	1r	4d]	1f	2a	4ff]
.	.	8c	.	.	8ee
.	.	8B-	.	.	8dd
.	.	2A	.	2a	2cc
.	[1f	2B-	1r	2d	2dd
.	.	2A	.	[2a	[2cc
=197	=197	=197	=197	=197	=197
0r	1f]	1d	1r	2a]	4cc]
.	.	.	.	.	8b-
.	.	.	.	.	8a
.	.	.	.	4g	2b
.	.	.	.	4f	.
.	[1e	1c	2r	[1g	[1cc
.	.	.	2c	.	.
=198	=198	=198	=198	=198	=198
1C	1e_	0r	2c	1g]	0cc]
.	.	.	2c	.	.
2C	1e_	.	2g	2r	.
2C	.	.	[2c	2g	.
=199	=199	=199	=199	=199	=199
1c	1e]	0r	4c]	2g	2r
.	.	.	4d	.	.
.	.	.	4e	2g	2cc
.	.	.	4f	.	.
2c	[1e	.	2g	1cc	2cc
2A	.	.	2a	.	2cc
=200	=200	=200	=200	=200	=200
2G	1e]	0r	2b-	2b-	1gg
2G	.	.	2b-	2g	.
1F	1f	.	2a	2.a	2cc
.	.	.	4g	.	2ff
.	.	.	4f	4b-	.
=201	=201	=201	=201	=201	=201
0r	[0c	1r	1g	1cc	2ff
.	.	.	.	.	2ee
.	.	1F	1f	[1a	2.ff
.	.	.	.	.	8ee
.	.	.	.	.	8dd
=202	=202	=202	=202	=202	=202
1r	1c]	2F	2r	1a]	0cc
.	.	2F	2c	.	.
1C	[1e	[1c	2c	1g	.
.	.	.	2c	.	.
=203	=203	=203	=203	=203	=203
2C	1e]	2c]	2g	1g	2r
2C	.	2c	2c	.	2g
[1G	1d	2B-	4d	2.b-	2g
.	.	.	4c	.	.
.	.	2G	4B-	.	2g
.	.	.	4A	4b-	.
=204	=204	=204	=204	=204	=204
2G]	1d	2B-	1G	2b-	2dd
2G	.	2B-	.	2b-	2g
2F	[1f	2c	1r	2a	2a
2D	.	[2f	.	2a	[2dd
=205	=205	=205	=205	=205	=205
2F	1f]	4f]	0r	1a	2dd]
.	.	4e	.	.	.
2A	.	2c	.	.	1cc
1G	[1g	1d	.	1r	.
.	.	.	.	.	2b
=206	=206	=206	=206	=206	=206
2r	0g]	2.e-	1c	1r	1cc
2c	.	.	.	.	.
.	.	4d	.	.	.
2c	.	2c	2e-	2r	1r
2B-	.	2G	2d	2g	.
=207	=207	=207	=207	=207	=207
1.c	0r	1A	1c	2g	0r
.	.	.	.	2f	.
.	.	1G	1d	1g	.
2B-	.	.	.	.	.
=208	=208	=208	=208	=208	=208
2.A	0r	1r	1c	2f	0r
.	.	.	.	2e	.
4G	.	.	.	.	.
2F	.	2r	1c	2a	.
2E	.	[2c	.	2g	.
=209	=209	=209	=209	=209	=209
1D	0r	2c]	1d	1f	2r
.	.	2B	.	.	1ff
1C	.	2c	2g	2r	.
.	.	2c	[2a	[2cc	2ee
=210	=210	=210	=210	=210	=210
0r	0r	1d	2a]	2cc]	1.ff
.	.	.	2f	2b	.
.	.	1c	2g	2cc	.
.	.	.	2g	2cc	2ee
=211	=211	=211	=211	=211	=211
0r	0r	2G	2g	2b-	2dd
.	.	2A	2c	2a	2cc
.	.	1B-	1r	2g	2b-
.	.	.	.	[2f	2a
=212	=212	=212	=212	=212	=212
1r	0r	1c	1r	2f]	1g
.	.	.	.	2e	.
[1F	.	2r	[1a	2f	2f
.	.	[2A	.	[2f	[2cc
=213	=213	=213	=213	=213	=213
2F]	0r	2A]	2a]	2f]	2cc]
2F	.	2A	2a	2f	2cc
1F	.	1A	1cc	1a	1ff
=214	=214	=214	=214	=214	=214
1C	0r	1c	1cc	1g	1ee
2.G	.	2.d	2.b-	2.g	2.dd
4G	.	4d	4b-	4g	4dd
=215	=215	=215	=215	=215	=215
2G	0r	2B-	2g	2d	2dd
2G	.	2B-	2g	2d	2dd
2C	.	2c	2g	2e-	2cc
2C	.	2c	2g	2e-	2cc
=216	=216	=216	=216	=216	=216
2D	0r	2F	2f	2d	2a
2BB-	.	1B-	2f	2d	2b-
1F	.	.	1f	1c	1cc
.	.	2A	.	.	.
=217	=217	=217	=217	=217	=217
0BB-	1r	4B-	0d	1B-	2dd
.	.	4c	.	.	.
.	.	4d	.	.	2b-
.	.	4e	.	.	.
.	[1B-	[1f	.	2r	1dd
.	.	.	.	2B-	.
=218	=218	=218	=218	=218	=218
2r	1B-]	1f]	2r	1d	1.ff
2BB-	.	.	1f	.	.
1D	[1A	2r	.	[1f	.
.	.	2F	[2a	.	2ff
=219	=219	=219	=219	=219	=219
1.F	1A_	1A	2a]	2f]	1ff
.	.	.	1cc	2f	.
.	1A_	2c	.	1a	2cc
2F	.	2A	2c	.	[2ff
=220	=220	=220	=220	=220	=220
2D	1A]	2f	2d	1a	4ff]
.	.	.	.	.	4ee
2D	.	2f	2d	.	1dd
2A	[1A	2e	2e	2.a	.
2A	.	2e	2A	.	2cc#
.	.	.	.	4a	.
=221	=221	=221	=221	=221	=221
1D	1A]	2d	1a	[0f	1dd
.	.	1f	.	.	.
[1BB-	1B-	.	[1d	.	[1ff
.	.	2e	.	.	.
=222	=222	=222	=222	=222	=222
2BB-]	[0F	2d	2d]	0f]	2ff]
2C	.	4c	2e	.	2ee
.	.	4B-	.	.	.
2D	.	1A	2f	.	1dd
2E	.	.	2g	.	.
=223	=223	=223	=223	=223	=223
[0F	1F]	1.A	0a	1.f	1cc
.	[1A	.	.	.	[1cc
.	.	2B-	.	2g	.
=224	=224	=224	=224	=224	=224
1F]	1A]	1.c	1f	2a	2cc]
.	.	.	.	2b-	2dd
2.C	1G	.	[1g	1cc	[1ee-
.	.	4B-	.	.	.
4D	.	4A	.	.	.
=225	=225	=225	=225	=225	=225
1E-	1G	4G	1g]	1.b-	1ee-]
.	.	4A	.	.	.
.	.	4B-	.	.	.
.	.	4c	.	.	.
[1BB-	[1B-	[1d	[1f	.	[1dd
.	.	.	.	4a	.
.	.	.	.	4g	.
=226	=226	=226	=226	=226	=226
1BB-]	1B-]	2d]	2f]	0f	1dd]
.	.	4c	2g	.	.
.	.	4B-	.	.	.
1F	[1c	1A	2a	.	[1cc
.	.	.	[2f	.	.
=227	=227	=227	=227	=227	=227
0C	0c]	0G	2f]	0g	0cc]
.	.	.	4e	.	.
.	.	.	4d	.	.
.	.	.	1e	.	.
=228	=228	=228	=228	=228	=228
0F	0c	0F	0f	0a	0cc
==	==	==	==	==	==
*-	*-	*-	*-	*-	*-
!!!CDT: 1525/^1526/-1594/2/2
!!!OCY: Italia
!!!AGN: Mass (Tenor)
!!!AST: renaissance, vocal
!!!ASW: Motet 1563 (Palestrina)
!!!PWK: Masses, Book 6
!!!RNB: Cadence finals: C
!!!YOR: Le Opere Complete, v. 21, p. 142
!!!YOO: Rome, Italy: Fratelli Scalera
!!!END: 1992//
!!!EED: John Miller
!!!YEC: Copyright 2000, John Miller
!!!YEN: United States of America
!!!YEM: Rights to all derivative electronic formats reserved.
!!!YEM: Refer to licensing agreement for further details.
!!!YEM: This file must be accompanied by the licensing agreement.
!!!YEM: A copy of the licensing agreement may be found at http://www.music-cog.ohio-state.edu/HumdrumDatabases/Palestrina/license.txt
!!!EMD: converted to Humdrum by Bret Aarden
